X:1
T: Loanmead
C:C Sherrit
R:Jig
Q:180
K:D
M:6/8
L:1/16
A2|:F2A2d2 f4e2|d2c2B2 A2G2F2|G4e2 F4d2|e4e2 c2B2A2|
F2A2d2 f4e2|d2c2B2 A2G2F2|G2B2e2 F2A2d2|1e2g2c2 d4A2:|2e2g2c2 d2f2g2|
|:a6 d4c2|B2d2g2 f6|g2d2B2 A2d2f2|e4B2 c2A2g2|
a6 d4c2|B2d2g2 A2G2F2|G2B2e2 F2A2d2|1e2g2c2 d2f2g2:|2e2g2c2 d4||
